src/lib/packages/icons/src/assets/line/rotate-left.svg

<svg width="24" height="24" viewBox="0 0 24 24" fill="none" xmlns="http://www.w3.org/2000/svg">
<path d="M21.75 12C21.75 17.376 17.376 21.75 12 21.75C8.273 21.75 4.92804 19.674 3.26904 16.333C3.08404 15.962 3.23693 15.5119 3.60693 15.3279C3.98093 15.1419 4.42904 15.297 4.61304 15.666C6.01604 18.493 8.84698 20.249 12.001 20.249C16.55 20.249 20.251 16.548 20.251 11.999C20.251 7.45002 16.55 3.74902 12.001 3.74902C8.87698 3.74902 6.0609 5.52302 4.6709 8.24902H8.00098C8.41498 8.24902 8.75098 8.58502 8.75098 8.99902C8.75098 9.41302 8.41498 9.74902 8.00098 9.74902H3.00098C2.58698 9.74902 2.25098 9.41302 2.25098 8.99902V3.99902C2.25098 3.58502 2.58698 3.24902 3.00098 3.24902C3.41498 3.24902 3.75098 3.58502 3.75098 3.99902V6.81299C5.50498 4.01999 8.60398 2.24902 12.001 2.24902C17.376 2.25002 21.75 6.624 21.75 12Z" fill="currentColor"/>
</svg>

<svg xmlns="http://www.w3.org/2000/svg" width="24" height="24" fill="none"><path fill="currentColor" d="M21.75 12c0 5.376-4.374 9.75-9.75 9.75a9.693 9.693 0 0 1-8.731-5.417.75.75 0 1 1 1.344-.667 8.2 8.2 0 0 0 7.388 4.583c4.549 0 8.25-3.701 8.25-8.25 0-4.549-3.701-8.25-8.25-8.25a8.24 8.24 0 0 0-7.33 4.5H8a.75.75 0 0 1 0 1.5H3a.75.75 0 0 1-.75-.75v-5a.75.75 0 0 1 1.5 0v2.814A9.754 9.754 0 0 1 12 2.249c5.376.001 9.75 4.375 9.75 9.751Z"/></svg>
